X: 236
T:O Twine A Wratch() x235
T:O Twine A Wreath,aka. JaW.235
M:2/4
L:1/8
Q:200
C:O Twine A Wreath,aka
S:James Winder Ms, Lancashire, 1835-41
R:Country Dance
O:England
A:Wyresdale,Lancashire
N:There are longways dance instructions with this tune, but they are more
N:or less illegible..
H:1/8
Z:vmp.Chris Partington, Aug 2004
K:G
d/c/|Bdgf|agec|edBG|A2zd/c/|!
Bdgf|(ag)ec|Be/d/ c/B/c/A/|G2z||!
B|Ac ed/c/|Bdg B|Ac ed/c/|B2zd|!
^cBA g|fed ((3b/g/e/)|d>d ^c/d/e/c/|d2z|]
